flaticon/online-marketing/speedometer.svg

<svg xmlns="http://www.w3.org/2000/svg" width="32" height="32" viewBox="0 0 24 24">
    <path d="M21.558594 17.4375L2.441406 17.4375C2.222656 17.4375 2.042969 17.617188 2.042969 17.835938 2.042969 18.054688 2.222656 18.234375 2.441406 18.234375L21.558594 18.234375C21.777344 18.234375 21.957031 18.054688 21.957031 17.835938 21.957031 17.617188 21.777344 17.4375 21.558594 17.4375zM18.367188 18.765625L5.632812 18.765625C5.414062 18.765625 5.234375 18.941406 5.234375 19.164062 5.234375 19.382812 5.414062 19.5625 5.632812 19.5625L18.367188 19.5625C18.585938 19.5625 18.765625 19.382812 18.765625 19.164062 18.765625 18.941406 18.585938 18.765625 18.367188 18.765625zM20.484375 7.953125C18.21875 5.6875 15.207031 4.4375 12 4.4375 8.792969 4.4375 5.78125 5.6875 3.515625 7.953125 1.25 10.21875 0 13.234375 0 16.4375 0 16.660156.179688 16.835938.398438 16.835938L23.601562 16.835938C23.820312 16.835938 24 16.660156 24 16.4375 24 13.234375 22.75 10.21875 20.484375 7.953125zM15.617188 13.382812C16.234375 14.113281 16.636719 15.035156 16.71875 16.042969L12.960938 16.042969zM11.835938 16.042969L7.28125 16.042969C7.480469 13.613281 9.523438 11.703125 12 11.703125 13.164062 11.703125 14.230469 12.125 15.054688 12.820312zM17.519531 16.042969C17.429688 14.816406 16.941406 13.695312 16.183594 12.820312L17.226562 11.777344C17.382812 11.621094 17.382812 11.367188 17.226562 11.210938 17.070312 11.058594 16.820312 11.058594 16.664062 11.210938L15.621094 12.257812C14.648438 11.414062 13.382812 10.90625 12 10.90625 9.082031 10.90625 6.6875 13.175781 6.480469 16.042969L1.96875 16.042969C1.992188 15.421875 2.074219 14.8125 2.207031 14.226562L3.445312 14.558594C3.480469 14.566406 3.511719 14.574219 3.546875 14.574219 3.722656 14.574219 3.882812 14.457031 3.933594 14.277344 3.988281 14.066406 3.863281 13.847656 3.648438 13.789062L2.410156 13.457031C2.59375 12.871094 2.832031 12.304688 3.113281 11.769531L4.222656 12.410156C4.285156 12.445312 4.355469 12.460938 4.421875 12.460938 4.558594 12.460938 4.691406 12.390625 4.765625 12.261719 4.875 12.074219 4.8125 11.828125 4.621094 11.71875L3.511719 11.082031C3.839844 10.5625 4.214844 10.078125 4.628906 9.628906L5.53125 10.535156C5.609375 10.613281 5.710938 10.652344 5.8125 10.652344 5.914062 10.652344 6.015625 10.613281 6.09375 10.535156 6.25 10.378906 6.25 10.125 6.09375 9.972656L5.191406 9.066406C5.636719 8.652344 6.125 8.28125 6.640625 7.953125L7.28125 9.058594C7.355469 9.1875 7.488281 9.257812 7.625 9.257812 7.691406 9.257812 7.761719 9.242188 7.824219 9.207031 8.015625 9.097656 8.078125 8.851562 7.96875 8.664062L7.328125 7.554688C7.867188 7.269531 8.429688 7.035156 9.019531 6.851562L9.351562 8.089844C9.398438 8.265625 9.558594 8.382812 9.734375 8.382812 9.769531 8.382812 9.804688 8.378906 9.839844 8.371094 10.050781 8.3125 10.175781 8.09375 10.121094 7.882812L9.789062 6.644531C10.375 6.511719 10.980469 6.433594 11.601562 6.40625L11.601562 7.691406C11.601562 7.910156 11.78125 8.089844 12 8.089844 12.21875 8.089844 12.398438 7.910156 12.398438 7.691406L12.398438 6.40625C13.019531 6.433594 13.625 6.511719 14.210938 6.644531L13.878906 7.882812C13.824219 8.09375 13.949219 8.3125 14.160156 8.371094 14.195312 8.378906 14.230469 8.382812 14.265625 8.382812 14.441406 8.382812 14.601562 8.265625 14.648438 8.089844L14.980469 6.851562C15.570312 7.035156 16.132812 7.269531 16.671875 7.554688L16.03125 8.664062C15.921875 8.851562 15.984375 9.097656 16.175781 9.207031 16.238281 9.242188 16.308594 9.257812 16.375 9.257812 16.511719 9.257812 16.644531 9.1875 16.71875 9.058594L17.359375 7.953125C17.875 8.28125 18.363281 8.652344 18.808594 9.066406L17.90625 9.972656C17.75 10.125 17.75 10.378906 17.90625 10.535156 17.984375 10.613281 18.085938 10.652344 18.1875 10.652344 18.289062 10.652344 18.390625 10.613281 18.46875 10.535156L19.371094 9.628906C19.785156 10.078125 20.160156 10.5625 20.488281 11.078125L19.378906 11.71875C19.1875 11.828125 19.125 12.074219 19.234375 12.261719 19.308594 12.390625 19.441406 12.460938 19.578125 12.460938 19.644531 12.460938 19.714844 12.445312 19.777344 12.410156L20.886719 11.769531C21.167969 12.304688 21.40625 12.871094 21.589844 13.457031L20.351562 13.789062C20.136719 13.847656 20.011719 14.066406 20.070312 14.277344 20.117188 14.457031 20.277344 14.574219 20.453125 14.574219 20.488281 14.574219 20.523438 14.566406 20.554688 14.558594L21.792969 14.226562C21.925781 14.8125 22.007812 15.421875 22.03125 16.042969zM22.828125 16.042969C22.617188 10.25 17.839844 5.601562 12 5.601562 6.160156 5.601562 1.382812 10.25 1.171875 16.042969L.804688 16.042969C1.011719 10.046875 5.957031 5.234375 12 5.234375 18.042969 5.234375 22.988281 10.046875 23.195312 16.042969zM22.828125 16.042969"/>
</svg>

<svg xmlns="http://www.w3.org/2000/svg" width="32" height="32" viewBox="0 0 24 24">
    <path d="M21.559 17.438H2.44a.4.4 0 0 0-.398.398.4.4 0 0 0 .398.398H21.56a.4.4 0 0 0 .398-.398.4.4 0 0 0-.398-.398zm0 0M18.367 18.766H5.633a.398.398 0 1 0 0 .797h12.734a.398.398 0 1 0 0-.797zm0 0M20.484 7.953A11.92 11.92 0 0 0 12 4.437a11.92 11.92 0 0 0-8.484 3.516A11.926 11.926 0 0 0 0 16.438c0 .222.18.398.398.398h23.204a.398.398 0 0 0 .398-.398c0-3.204-1.25-6.22-3.516-8.485zm-4.867 5.43a4.713 4.713 0 0 1 1.102 2.66H12.96zm-3.781 2.66H7.28A4.739 4.739 0 0 1 12 11.703c1.164 0 2.23.422 3.055 1.117zm5.684 0a5.537 5.537 0 0 0-1.336-3.223l1.043-1.043a.4.4 0 0 0 0-.566.403.403 0 0 0-.563 0l-1.043 1.047A5.506 5.506 0 0 0 12 10.906a5.543 5.543 0 0 0-5.52 5.137H1.97c.023-.621.105-1.23.238-1.816l1.238.332c.035.007.067.015.102.015a.403.403 0 0 0 .387-.297.402.402 0 0 0-.286-.488l-1.238-.332c.184-.586.422-1.152.703-1.687l1.11.64c.062.035.132.05.199.05a.397.397 0 0 0 .2-.742l-1.11-.636c.328-.52.703-1.004 1.117-1.453l.902.906a.396.396 0 0 0 .563 0 .396.396 0 0 0 0-.562l-.903-.907c.446-.414.934-.785 1.45-1.113l.64 1.106c.074.129.207.199.344.199a.409.409 0 0 0 .2-.051.397.397 0 0 0 .144-.543l-.64-1.11a9.895 9.895 0 0 1 1.69-.702l.333 1.238a.396.396 0 0 0 .382.293c.036 0 .07-.004.106-.012a.403.403 0 0 0 .281-.488L9.79 6.645c.586-.133 1.191-.211 1.813-.239v1.285A.4.4 0 0 0 12 8.09a.4.4 0 0 0 .398-.399V6.406c.622.028 1.227.106 1.813.239l-.332 1.238c-.055.21.07.43.281.488.035.008.07.012.106.012a.396.396 0 0 0 .382-.293l.332-1.238c.59.183 1.153.418 1.692.703l-.64 1.11a.397.397 0 0 0 .144.542c.062.035.133.05.199.05.137 0 .27-.07.344-.198l.64-1.106c.516.328 1.004.7 1.45 1.113l-.903.907a.396.396 0 0 0 0 .562.396.396 0 0 0 .563 0l.902-.906c.414.45.79.934 1.117 1.45l-1.11.64a.397.397 0 0 0 .2.742.409.409 0 0 0 .2-.05l1.109-.641c.281.535.52 1.101.703 1.687l-1.238.332a.397.397 0 0 0-.282.488c.047.18.207.297.383.297.035 0 .07-.008.102-.015l1.238-.332c.133.585.215 1.195.238 1.816zm5.308 0C22.618 10.25 17.84 5.602 12 5.602c-5.84 0-10.617 4.648-10.828 10.441H.805C1.012 10.047 5.957 5.234 12 5.234s10.988 4.813 11.195 10.809zm0 0"/>
</svg>
